apps/32/zanshin.svg

<?xml version="1.0" encoding="UTF-8" standalone="no"?>
<!-- Created with Inkscape (http://www.inkscape.org/) -->

<svg
   width="32"
   height="32"
   version="1.1"
   viewBox="0 0 32 32"
   id="svg22"
   xmlns:xlink="http://www.w3.org/1999/xlink"
   xmlns="http://www.w3.org/2000/svg"
   xmlns:svg="http://www.w3.org/2000/svg">
  <defs
     id="defs12">
    <linearGradient
       xlink:href="#linearGradient3487"
       id="linearGradient3403"
       gradientUnits="userSpaceOnUse"
       x1="6.9491749"
       y1="4.5549412"
       x2="11.215498"
       y2="59.052471" />
    <linearGradient
       id="linearGradient3487">
      <stop
         style="stop-color:#32373c;stop-opacity:1"
         offset="0"
         id="stop3481" />
      <stop
         id="stop3483"
         offset="0.36804965"
         style="stop-color:#1a1a1a;stop-opacity:1" />
      <stop
         style="stop-color:#31363b;stop-opacity:1"
         offset="1"
         id="stop3485" />
    </linearGradient>
    <linearGradient
       xlink:href="#linearGradient20604"
       id="linearGradient20558"
       gradientUnits="userSpaceOnUse"
       x1="25.802212"
       y1="20.373846"
       x2="25.111048"
       y2="58.912758" />
    <linearGradient
       id="linearGradient20604">
      <stop
         id="stop20598"
         offset="0"
         style="stop-color:#3d3d3d;stop-opacity:1" />
      <stop
         style="stop-color:#000000;stop-opacity:1"
         offset="0.61772454"
         id="stop20600" />
      <stop
         id="stop20602"
         offset="1"
         style="stop-color:#3d3d3d;stop-opacity:1" />
    </linearGradient>
    <filter
       style="color-interpolation-filters:sRGB"
       id="filter20720"
       x="-0.017024755"
       y="-0.016457183"
       width="1.0340491"
       height="1.0329144">
      <feGaussianBlur
         stdDeviation="0.14745661"
         id="feGaussianBlur20722" />
    </filter>
    <linearGradient
       gradientTransform="translate(0.36067797,-0.13016949)"
       xlink:href="#linearGradient4555"
       id="linearGradient4557"
       x1="43.499737"
       y1="64.011795"
       x2="44.141731"
       y2="0.30621234"
       gradientUnits="userSpaceOnUse" />
    <linearGradient
       id="linearGradient4555">
      <stop
         style="stop-color:#141618;stop-opacity:1"
         offset="0"
         id="stop4551" />
      <stop
         id="stop4559"
         offset="0.51820582"
         style="stop-color:#686868;stop-opacity:1" />
      <stop
         style="stop-color:#31363b;stop-opacity:1"
         offset="1"
         id="stop4553" />
    </linearGradient>
    <filter
       style="color-interpolation-filters:sRGB"
       id="filter4601"
       x="-0.030244762"
       width="1.0604895"
       y="-0.030100647"
       height="1.0602013">
      <feGaussianBlur
         stdDeviation="0.014790289"
         id="feGaussianBlur4603" />
    </filter>
  </defs>
  <rect
     width="28.075684"
     height="28.075684"
     x="-29.659784"
     y="-30.492466"
     rx="1.403784"
     ry="1.403784"
     transform="matrix(0,-1,-1,0,0,0)"
     style="fill:#182d33;stroke-width:0.668469"
     id="rect3" />
  <circle
     cx="19.441786"
     cy="16.290411"
     r="10.02703"
     style="opacity:0.2;fill-rule:evenodd;stroke-width:0.668469"
     id="circle3" />
  <circle
     style="fill:#223f48;fill-rule:evenodd;stroke-width:0.668469"
     cx="19.441786"
     cy="15.621943"
     r="10.02703"
     id="circle4" />
  <circle
     style="opacity:0.2;fill-rule:evenodd;stroke-width:0.668469"
     cx="19.441786"
     cy="16.290411"
     r="6.6846867"
     id="circle5" />
  <circle
     cx="19.441786"
     cy="15.621943"
     r="6.6846867"
     style="fill:#325e6a;fill-rule:evenodd;stroke-width:0.668469"
     id="circle6" />
  <circle
     cx="19.441786"
     cy="16.290411"
     r="2.6738746"
     style="opacity:0.2;fill-rule:evenodd;stroke-width:0.668469"
     id="circle7" />
  <circle
     style="fill:#1996b4;fill-rule:evenodd;stroke-width:0.668469"
     cx="19.441786"
     cy="15.621943"
     r="2.6738746"
     id="circle8" />
  <path
     style="opacity:0.1;fill:#ffffff;fill-rule:evenodd;stroke-width:0.668469"
     d="M 19.441784,5.5949126 A 10.02703,10.02703 0 0 0 9.4147537,15.621943 10.02703,10.02703 0 0 0 9.4278098,16.013624 10.02703,10.02703 0 0 1 19.441784,6.2633813 10.02703,10.02703 0 0 1 29.455758,15.898731 10.02703,10.02703 0 0 0 29.468814,15.621943 10.02703,10.02703 0 0 0 19.441784,5.5949126 Z"
     id="path8" />
  <path
     style="opacity:0.1;fill:#ffffff;fill-rule:evenodd;stroke-width:0.668469"
     d="m 19.441784,8.9372559 a 6.6846865,6.6846865 0 0 0 -6.684687,6.6846871 6.6846865,6.6846865 0 0 0 0.01436,0.391681 6.6846865,6.6846865 0 0 1 6.670325,-6.4078997 6.6846865,6.6846865 0 0 1 6.670325,6.2930067 6.6846865,6.6846865 0 0 0 0.01437,-0.276788 6.6846865,6.6846865 0 0 0 -6.684686,-6.6846871 z"
     id="path9" />
  <path
     style="opacity:0.2;fill:#ffffff;fill-rule:evenodd;stroke-width:0.668469"
     d="m 19.441784,12.948068 a 2.6738747,2.6738747 0 0 0 -2.673875,2.673875 2.6738747,2.6738747 0 0 0 0.0235,0.330318 2.6738747,2.6738747 0 0 1 2.650371,-2.335724 2.6738747,2.6738747 0 0 1 2.650374,2.343557 2.6738747,2.6738747 0 0 0 0.0235,-0.338151 2.6738747,2.6738747 0 0 0 -2.673874,-2.673875 z"
     id="path10" />
  <path
     style="display:inline;mix-blend-mode:normal;fill:url(#linearGradient3403);fill-opacity:1;stroke:url(#linearGradient20558);stroke-width:1.16242;stroke-linecap:butt;stroke-linejoin:round;stroke-miterlimit:4;stroke-dasharray:none;stroke-opacity:1;filter:url(#filter20720)"
     d="M 4.7043071,3.9814882 4.6913695,60.80196 H 58.59546 l 1.022155,-2.866369 c 0,0 -23.87537,0.766388 -32.844441,-4.140386 C 16.257548,48.042344 11.401114,4.0978197 11.401114,4.0978197 Z"
     id="path1686"
     transform="matrix(0.50534112,0,0,0.50011058,0.04586555,0.01301493)" />
  <rect
     style="display:inline;fill:none;fill-opacity:1;stroke:url(#linearGradient4557);stroke-width:3.71366;stroke-linejoin:round;stroke-miterlimit:7.8;stroke-dasharray:none;stroke-opacity:0.995146;filter:url(#filter4601)"
     id="rect4539"
     width="62.567089"
     height="62.866646"
     x="1.0323594"
     y="0.59551275"
     ry="6.2447233"
     rx="5.8029528"
     transform="matrix(0.46848883,0,0,0.46768034,0.89535183,1.019093)" />
</svg>

<svg width="32" height="32" version="1.1" viewBox="0 0 32 32" xmlns="http://www.w3.org/2000/svg" xmlns:xlink="http://www.w3.org/1999/xlink">
<defs>
<linearGradient id="linearGradient3403" x1="6.9492" x2="11.215" y1="4.5549" y2="59.052" gradientUnits="userSpaceOnUse">
<stop style="stop-color:#32373c" offset="0"/>
<stop style="stop-color:#1a1a1a" offset=".36805"/>
<stop style="stop-color:#31363b" offset="1"/>
</linearGradient>
<linearGradient id="linearGradient20558" x1="25.802" x2="25.111" y1="20.374" y2="58.913" gradientUnits="userSpaceOnUse">
<stop style="stop-color:#3d3d3d" offset="0"/>
<stop offset=".61772"/>
<stop style="stop-color:#3d3d3d" offset="1"/>
</linearGradient>
<linearGradient id="linearGradient4557" x1="43.5" x2="44.142" y1="64.012" y2=".30621" gradientTransform="translate(.36068 -.13017)" gradientUnits="userSpaceOnUse">
<stop style="stop-color:#141618" offset="0"/>
<stop style="stop-color:#686868" offset=".51821"/>
<stop style="stop-color:#31363b" offset="1"/>
</linearGradient>
</defs>
<rect transform="matrix(0,-1,-1,0,0,0)" x="-29.66" y="-30.492" width="28.076" height="28.076" rx="1.4038" ry="1.4038" style="fill:#182d33;stroke-width:.66847"/>
<circle cx="19.442" cy="16.29" r="10.027" style="fill-rule:evenodd;opacity:.2;stroke-width:.66847"/>
<circle cx="19.442" cy="15.622" r="10.027" style="fill-rule:evenodd;fill:#223f48;stroke-width:.66847"/>
<circle cx="19.442" cy="16.29" r="6.6847" style="fill-rule:evenodd;opacity:.2;stroke-width:.66847"/>
<circle cx="19.442" cy="15.622" r="6.6847" style="fill-rule:evenodd;fill:#325e6a;stroke-width:.66847"/>
<circle cx="19.442" cy="16.29" r="2.6739" style="fill-rule:evenodd;opacity:.2;stroke-width:.66847"/>
<circle cx="19.442" cy="15.622" r="2.6739" style="fill-rule:evenodd;fill:#1996b4;stroke-width:.66847"/>
<path d="m19.442 5.5949a10.027 10.027 0 0 0-10.027 10.027 10.027 10.027 0 0 0 0.013056 0.39168 10.027 10.027 0 0 1 10.014-9.7502 10.027 10.027 0 0 1 10.014 9.6353 10.027 10.027 0 0 0 0.013056-0.27679 10.027 10.027 0 0 0-10.027-10.027z" style="fill-rule:evenodd;fill:#fff;opacity:.1;stroke-width:.66847"/>
<path d="m19.442 8.9373a6.6847 6.6847 0 0 0-6.6847 6.6847 6.6847 6.6847 0 0 0 0.01436 0.39168 6.6847 6.6847 0 0 1 6.6703-6.4079 6.6847 6.6847 0 0 1 6.6703 6.293 6.6847 6.6847 0 0 0 0.01437-0.27679 6.6847 6.6847 0 0 0-6.6847-6.6847z" style="fill-rule:evenodd;fill:#fff;opacity:.1;stroke-width:.66847"/>
<path d="m19.442 12.948a2.6739 2.6739 0 0 0-2.6739 2.6739 2.6739 2.6739 0 0 0 0.0235 0.33032 2.6739 2.6739 0 0 1 2.6504-2.3357 2.6739 2.6739 0 0 1 2.6504 2.3436 2.6739 2.6739 0 0 0 0.0235-0.33815 2.6739 2.6739 0 0 0-2.6739-2.6739z" style="fill-rule:evenodd;fill:#fff;opacity:.2;stroke-width:.66847"/>
<path transform="matrix(.50534 0 0 .50011 .045866 .013015)" d="m4.7043 3.9815-0.012938 56.82h53.904l1.0222-2.8664s-23.875 0.76639-32.844-4.1404c-10.516-5.7529-15.372-49.697-15.372-49.697z" style="fill:url(#linearGradient3403);mix-blend-mode:normal;stroke-linejoin:round;stroke-width:1.1624;stroke:url(#linearGradient20558)"/>
<rect transform="matrix(.46849 0 0 .46768 .89535 1.0191)" x="1.0324" y=".59551" width="62.567" height="62.867" rx="5.803" ry="6.2447" style="fill:none;stroke-linejoin:round;stroke-miterlimit:7.8;stroke-opacity:.99515;stroke-width:3.7137;stroke:url(#linearGradient4557)"/>
</svg>
